packages/icons/src/components/Icon/assets/small-solid/bullhorn.svg

<svg width="16" height="16" viewBox="0 0 16 16" fill="none" xmlns="http://www.w3.org/2000/svg">
<path d="M13.407 2.58691C13.3168 2.18263 12.916 1.92798 12.5117 2.01814C12.1074 2.10831 11.8528 2.50913 11.9429 2.91342C12.3077 4.54902 12.5003 6.25023 12.5003 7.9973C12.5003 9.74438 12.3077 11.4456 11.9429 13.0812C11.8528 13.4855 12.1074 13.8863 12.5117 13.9765C12.916 14.0666 13.3168 13.812 13.407 13.4077C13.6713 12.2226 13.8506 11.0056 13.9382 9.76382C14.5699 9.42766 15 8.76259 15 7.99707C15 7.23154 14.5699 6.56646 13.9382 6.23031C13.8505 4.98864 13.6713 3.7719 13.407 2.58691Z" fill="black"/>
<path d="M4.34757 10.9971H4C2.34315 10.9971 1 9.65392 1 7.99707C1 6.34022 2.34315 4.99707 4 4.99707H6C7.64721 4.99707 9.21691 4.66501 10.6459 4.06445C10.8783 5.33849 11 6.65247 11 7.9965C11 9.34079 10.8783 10.655 10.6457 11.9293C9.33751 11.3795 7.91134 11.0549 6.41572 11.004C6.61941 11.7223 6.89425 12.4108 7.23216 13.0612C7.35143 13.2908 7.28883 13.5757 7.07691 13.7241L6.24892 14.3039C6.01046 14.4709 5.67952 14.4 5.54168 14.1436C5.01475 13.1634 4.60992 12.1077 4.34757 10.9971Z" fill="black"/>
</svg>

<svg xmlns="http://www.w3.org/2000/svg" width="16" height="16" fill="none" viewBox="0 0 16 16">
    <path fill="#000" d="M13.407 2.587a.75.75 0 0 0-1.464.326c.365 1.636.557 3.337.557 5.084s-.192 3.449-.557 5.084a.75.75 0 0 0 1.464.327 25 25 0 0 0 .531-3.644 2 2 0 0 0 0-3.534 25 25 0 0 0-.531-3.643m-9.059 8.41H4a3 3 0 0 1 0-6h2c1.647 0 3.217-.332 4.646-.933.232 1.274.354 2.588.354 3.933s-.122 2.658-.354 3.932a12 12 0 0 0-4.23-.925c.203.718.478 1.407.816 2.057.12.23.057.515-.155.663l-.828.58a.484.484 0 0 1-.707-.16 13 13 0 0 1-1.194-3.147"/>
</svg>
